X:146
T:Passing Ship*  (r)
B:NFID.075b ("untitled reel")
146pass
S:JD
L:1/8
M:C
R:reel
Q:360
K:Am
AG|EAAB c2BA|GBdc BAGD|EAAB cde^f|gedB eAAG|
EAAB c2BA|GBdc BAGD|EAAB cde^f|gedB eAAg||
eaag edBd|g2bg edBd|(3ggg bg e^fge|dBgB BAAg|
eaag edBd|(3ggg bg edBd|gabg e^fge|dBgB cBAG||

%%%

